X:1
T:The Better Day
T:The Better Day
T:D. R. Mansfield
T:E. S. Mansfield, 1882
T:Public Domain Courtesy of the Cyber Hymnal™
T:Public Domain Courtesy of the Cyber Hymnal™
C:D. R. Mansfield
Z:Public Domain
Z:Courtesy of the Cyber Hymnal™
%%score ( 1 2 ) ( 3 4 )
L:1/8
Q:1/4=97
M:4/4
K:F
V:1 treble 
V:2 treble 
V:3 bass 
V:4 bass 
V:1
 C>C | [CF]2 [CF][CG] [FA]2 [A,C]>[A,C] | [B,D]2 [B,D][B,D] [DB]2 CC | %3
w: 1.~Oh, the|Lamb that was slain, Soon is|com- ing a- gain, Com- ing|
w: 2.~Then look|up, wea- ry saint, For thy|mourn- ing shall end, And the|
w: 3.~Wan- dering|child, lone and sad, From thy|Fa- ther’s a- bode, On the|
w: 4.~Roll a-|way, sky of blue, Let the|Sav- ior come thro’— An- gry|
 [CF]2 [CF][CF] [CE]2 [CF]>[CF] | [EG]4 z2 C2 | [FA]2 [FA]>[FA] [Fc]2 [CF]>[CF] | %6
w: back in His king- ly ar-|ray; The|bright glo- ry light, As it|
w: foun- tain of tears shall be|dried: Sing,|joy- ful- ly sing, Un- to|
w: moun- tain of sin, dark and|cold, The|kind Shep- herd waits, With a|
w: na- tions rush on to the|fray; But|saints clad in white, And the|
 [EG]2 [EG]>[FA] [DB]2 [CE][CE] | [CF]2 [CF][FG] [FA]2 [EG]>[EG] | F4 z2 || %9
w: breaks on our sight, Shines the|curse of the earth all a-|way.|
w: Je- sus the King, Who will|reign with His bride at His|side.|
w: light at the gate, He is|call- ing thee back to the|fold.|
w: an- gels in light, With the|con- quer- ing Lamb, win the|day.|
"^Refrain" !fermata![Ac]>[GB] | [FA]<[FA] [CG][CF] [B,D]<[B,D] z [DB] | %11
w: ||
w: Oh, the|bet- ter day is com- ing, The|
w: ||
w: ||
 [DB]2 [B,D][B,D] [B,D]<[A,C] z C | [CF]<[CF] [CF][CF] [CF]<[CE] [CF][FA] | %13
w: ||
w: day- star is shin- ing, The|bet- ter day is com- ing by and|
w: ||
w: ||
 [EG]6 !fermata![Ec]>[EB] | [FA]<[FA] [CG][CF] D<D [DB]>[DB] | %15
w: ||
w: by; Oh, the|bet- ter day is com- ing, In the|
w: ||
w: ||
 [DB][B,D] [B,D]>[B,D] [B,D]<[A,C] z C | [CF]<[CF] [CF][CF] [CE]<[CE] [CD][CE] | !fermata!F6 |] %18
w: |||
w: dawn- ing of the morn- ing, The|bet- ter day is com- ing by and|by.|
w: |||
w: |||
V:2
 C>C | x8 | x6 CC | x8 | x6 C2 | x8 | x8 | x8 | F4 x2 || x2 | x8 | x7 C | x8 | x8 | x4 D<D x2 | %15
 x7 C | x8 | (C2 DD C2) |] %18
V:3
 [F,A,]>[F,A,] | [F,A,]2 [F,A,][F,B,] [F,C]2 F,>F, | %2
 [B,,F,]2 [B,,F,][B,,F,] [B,,F,]2 [F,A,][F,A,] | [F,A,]2 [F,A,][F,A,] [G,B,]2 [F,A,]>[F,A,] | %4
 [C,C]4 z2 [F,A,]2 | [F,C]2 [F,C]>[F,C] [F,A,]2 [F,A,]>[F,A,] | %6
 [C,C]2 [C,C]>[A,,C] [G,,G,]2 [C,G,][C,G,] | [F,A,]2 [F,A,][F,B,] [F,C]2 [C,C]>[C,B,] | %8
 [F,A,]4 z2 || !fermata![F,C]>[F,C] | [F,C]<[F,C] [F,B,][F,A,] [B,,B,]<[B,,F,] z [B,,F,] | %11
 [B,,F,]2 [B,,F,][B,,F,] [F,,F,]<[F,,F,] z [F,A,] | %12
 [F,A,]<[F,A,] [F,A,][F,A,] [F,A,]<[G,B,] A,[F,C] | [C,C]6 !fermata![C,G,]>[C,C] | %14
 [F,,F,C]<[F,,F,C] [G,,E,][A,,F,] [B,,F,]<[B,,F,] [B,,F,]>[B,,F,] | %15
 [B,,F,][B,,F,] [B,,F,]>[B,,F,] [F,,F,]<[F,,F,] z [F,A,] | %16
 [F,A,]<[F,A,] [F,A,][F,A,] [C,G,]<[C,G,] [C,B,][C,B,] | (!fermata!A,2 B,B, !fermata!A,2) |] %18
V:4
 x2 | x6 F,>F, | x8 | x8 | x8 | x8 | x8 | x8 | x6 || x2 | x8 | x8 | x6 A, x | x8 | x8 | x8 | x8 | %17
 F,6 |] %18

